X: 2
T: The Orphan
C: Traditional Irish
L: 1/8
M: 6/8
K: Edor
|: B, | "Em"E3 EDE | GFG A2 A | ~B3 ABA | GED EDB, | 
    "A7" A,2 A, EDE |  GFG A2 A | "B7" ~B3 ABA | GED "Em"E2 :|
|: d | "Em" ~e3 edB | GAB d3 | ~e3 edB | dBA GED | 
    "A7" A,2 A, EDE |  GFG A2 A | "B7" ~B3 ABA | GED "Em"E2 :|

